public/images/logo.svg

<svg width="138" height="138" viewBox="0 0 138 138" fill="none" xmlns="http://www.w3.org/2000/svg">
<path d="M56.5 7.21688C64.235 2.75106 73.765 2.75106 81.5 7.21688L116.256 27.2831C123.991 31.7489 128.756 40.0021 128.756 48.9338V89.0662C128.756 97.9979 123.991 106.251 116.256 110.717L81.5 130.783C73.765 135.249 64.235 135.249 56.5 130.783L21.7442 110.717C14.0092 106.251 9.24425 97.9979 9.24425 89.0662V48.9338C9.24425 40.0021 14.0092 31.7489 21.7442 27.2831L56.5 7.21688Z" fill="white"/>
<path d="M128.756 88.5317V89.0662C128.756 97.9979 123.991 106.251 116.256 110.717L81.5 130.783C73.765 135.249 64.235 135.249 56.5 130.783L21.7442 110.717C21.1716 110.386 20.6152 110.035 20.0758 109.664L17.5 101L26 68L33.5 56L55.5 78.5L82.5 38.5L128.756 88.5317Z" fill="#066C61"/>
<path d="M18.1726 108.216C14.6282 105.242 11.9954 101.354 10.5392 97.0092L10.5 96.5C11.6667 83.5 16.7 56.8 27.5 54C41.5 50.3704 48.5 96.5 48.5 96.5C48.5 96.5 54.7204 32.2561 74 33.5C89.5 34.5 95.5 66.5 91.5 125L91.4793 125.022L81.5 130.783C78.1083 132.741 74.3715 133.841 70.5923 134.082C77.5658 121.943 76.9064 74.0186 73.5 56.5C71.5082 62.0157 69.939 70.5009 68.2456 79.6574C64.4128 100.382 59.9439 124.546 48.5 125.5C48.0761 125.535 47.6559 125.513 47.2396 125.437L43.4536 123.251C36.248 116.272 30.6804 94.8558 28.5 83C28.103 93.7194 24.061 105.982 22.0451 110.891L21.7442 110.717C21.4834 110.566 21.2259 110.411 20.9718 110.252L18.1726 108.216Z" fill="#B3DBC9"/>
</svg>

<svg xmlns="http://www.w3.org/2000/svg" width="138" height="138" fill="none"><path fill="#fff" d="M56.5 7.217a25 25 0 0 1 25 0l34.756 20.066a25 25 0 0 1 12.5 21.65v40.133a25 25 0 0 1-12.5 21.651L81.5 130.783a25 25 0 0 1-25 0l-34.756-20.066a25 25 0 0 1-12.5-21.65V48.933a25 25 0 0 1 12.5-21.65z"/><path fill="#066C61" d="M128.756 88.532v.534a25 25 0 0 1-12.5 21.651L81.5 130.783a25 25 0 0 1-25 0l-34.756-20.066a25 25 0 0 1-1.668-1.053L17.5 101 26 68l7.5-12 22 22.5 27-40z"/><path fill="#B3DBC9" d="M18.173 108.216a25 25 0 0 1-7.634-11.207L10.5 96.5c1.167-13 6.2-39.7 17-42.5 14-3.63 21 42.5 21 42.5s6.22-64.244 25.5-63c15.5 1 21.5 33 17.5 91.5l-.02.022-9.98 5.761a25 25 0 0 1-10.908 3.299c6.974-12.139 6.314-60.063 2.908-77.582-1.992 5.516-3.561 14-5.254 23.157-3.833 20.725-8.302 44.889-19.746 45.843a4.8 4.8 0 0 1-1.26-.063l-3.786-2.186C36.248 116.272 30.68 94.856 28.5 83c-.397 10.72-4.439 22.982-6.455 27.891l-.3-.174q-.393-.227-.773-.465z"/></svg>
